!!!!SEGMENT: pl-wn--mus-iii-89-502--003_zelenski-wladyslaw--z-kantaty-jubileuszowej-do-slow-deotymy-marsz-jagiellonski.krn
!!!cenid: 18xx:3761
!!!COM: Żeleński, Władysław
!!!COM-rismID: pe41024455
!!!CDT:
!!!CNT:
!!!GTL: Z kantaty jubileuszowej do słów Deotymy
!!!OTL: Marsz jagielloński
!!!PDT:
!!!AGN:
!!!SMS-siglum: PL-Wn
!!!SMS-shelfmark: Mus.III.89.502
!!!SMS-shelfwork: 003 G
!!!SMS-variant:
!!!SMS-altvar:
!!!NIFC-rismSourceID:
!!!NIFC-islandoraID:
!!!URL-pdf-islandora:
!!!URL-scan: https://polona.pl/item/z-kantaty-jubileuszowej-do-slow-deotymy,ODMzNDMxMTA/0/#info:metadata @EN{Scan on Polona} @PL{Skany w portalu Polona}
!!!ONB-nifc: UWAGA: części: 1. Elegia, 2. Polonez, 3. Marsz jagielloński
!!!AIN: 2 piano
!!!key: C
**kern	**dynam	**kern	**dynam
*part2	*part2	*part1	*part1
*staff2	*	*staff1	*
*I"Piano.	*	*I"Piano	*
*I'pf	*	*I'pf	*
*Ipiano	*	*Ipiano	*
*ICklav	*	*ICklav	*
*clefF4	*	*clefG2	*
*k[]	*	*k[]	*
*C:	*	*C:	*
*M4/4	*	*M4/4	*
*met(c)	*	*met(c)	*
4r	.	8.G/L 8.g	mf
.	.	16G/Jk 16g	.
=1	=1	=1	=1
1r	.	2.G/ 2.g	.
.	.	8.G/L 8.g	.
.	.	16G/Jk 16g	.
=2	=2	=2	=2
1r	.	2.G/ 2.g	.
.	.	8.G/L 8.g	.
.	.	16G/Jk 16g	.
=3	=3	=3	=3
*	*	*^	*
4r	.	4g/	4G/	p
4BBB/ 4BB	.	8.G/L 8.g	4d\	.
.	.	16g/Jk	.	.
4CC/ 4C	.	4G/ 4g	2ryy	.
4BBB/ 4BB	.	4G/ 4g	.	.
*	*	*v	*v	*
=4	=4	=4	=4
4AAA/ 4AA	.	[2c^/ [>2e [2cc	.
((4GGG#X/ 4GG#X	.	.	.
8.AAA/L)) 8.AA	.	8.c/L] 8.e] 8.cc]	.
16BBB/Jk 16BB	.	16d/Jk 16e 16b	.
4CC/ 4C	.	8.c/L 8.e 8.a	.
.	.	16B/Jk 16e 16g	.
!!LB
=5	=5	=5	=5
*	*	*^	*
4CC/ 4C	.	4f/ 4f	4A\	.
4BBB/ 4BB	.	8.B/L 8.f 8.f	4ryy	.
.	.	16B/Jk 16f 16f	.	.
4AAA/ 4AA	.	4f/ 4f	4c/	.
4BBB/ 4BB	.	(8.g/L	4B\ 4d#X	.
.	.	16a/Jk	.	.
*	*	*v	*v	*
=6	=6	=6	=6
(4EE/ (4E	.	[2B/) [>2e [2g	.
!LO:N:acc=n	!	!	!
8.FF#X/L) 8.F#X)	.	.	.
16FF#/Jk 16F#	.	.	.
4EE/ 4E	.	8.B/L] 8.e] 8.g]	<
.	.	16B/K 16g 16b	.
4DD/ 4D	.	8.c/ 8.f 8.cc	.
.	.	16d/Jk 16f 16dd	[
=7	=7	=7	=7
!	!	!LO:TX:b:i:t=poco	!
4CC/ 4C	.	[2e/ [2g [2ee	.
8.BBB/L 8.BB	.	.	<
16BBB/Jk 16BB	.	.	.
4EE/ 4E	.	8.e/L] 8.g] 8.ee]	.
.	.	16d/K 16g 16dd	.
4FF#X/ 4F#X	.	8.c/ 8.e 8.cc	.
.	.	16c/Jk 16e-X 16a	.
=8	=8	=8	=8
*	*	*^	*
4GG/ 4G	.	4g/	4B\ 4d	.
4FFn/ 4Fn	.	8.g/L	4B\ 4d	.
.	.	16g/Jk	.	.
4EE/ 4E	.	8.G/L 8.c 8.g	2ryy	.
.	.	16B/K 16g 16b	.	.
4DD/ 4D	.	8.c/ 8.f 8.cc	.	.
.	.	16d/Jk 16f 16dd	.	.
!!LB
=9	=9	=9	=9	=9
4CC/ 4C	.	[2ee/	4e\ 4g	.
8.GGG#X/L 8.GG#X	.	.	((<4f\ [<4b	.
16GGG#/Jk 16GG#	.	.	.	.
4FFF/ 4FF	.	8.cc/L) 8.ee]	(<4e\))	.
.	.	16b/K 16dd	.	.
4FFF#X/ 4FF#X	.	8.e/ 8.a 8.cc	4e/)yy	.
.	.	16c/Jk 16e-X 16a	.	.
=10	=10	=10	=10	=10
4GGG/ 4GG	.	4g/	4B\	.
4FF/ 4F	.	8.g/L	4B\	.
.	.	16g/Jk	.	.
4EE/ 4E	.	4g/	4c/	.
4DD/ 4D	.	8.B-X/L 8.b-X	4e\ 4g	.
.	.	16A/Jk 16a	.	.
*	*	*v	*v	*
=11	=11	=11	=11
4CC#X/ 4C#X	.	4A/ 4g 4a	.
8.AAA^/L 8.AA	.	[4g^\ [4a [4gg	f
16BBB/Jk 16BB	.	.	.
4CC#/ 4C#	.	8.g\L] 8.a] 8.gg]	.
.	.	16g\Jk 16a 16gg	.
4AAA/ 4AA	.	8.g\L 8.a 8.ff	.
.	.	16g\Jk 16a 16ee	.
=12	=12	=12	=12
4DD/ 4D	.	4f'\ 4a 4ff	.
4EE/ 4E	.	4g'\ 4a 4ee	.
4FF/ 4F	.	4f/ 4a 4dd	.
4FF#X/ 4F#X	.	[4et/ [4a [4cc	.
.	.	16qqb/LL	.
.	.	16qqcc/JJ	.
!!LB
=13	=13	=13	=13
*	*	*^	*
4GG/ 4G	.	4e/] 4a] 4cc]	4r	>
2GGG/ 2GG	.	(8.a^/L	(<(4e-X\ 4f#X	.
.	.	16cc/Jk	.	.
.	.	4b/)	4d/)) 4fn	.
4GG/ 4G	.	(8.a/L	4d\ 4f	.
.	.	16b/Jk	.	]]
*	*	*v	*v	*
=14	=14	=14	=14
8CC/ 8C	.	8c/) 8e 8cc	p
8r	.	8r	.
4C\ 4c	.	8.e/L 8.g 8.cc	.
.	.	16e/Jk 16g 16cc	.
4CC/ 4C	.	8.e/L 8.g 8.cc	.
.	.	(16e/Jk	.
4r	.	8.cc\L) 8.ee	.
.	.	16cc\Jk 16ee	.
=15	=15	=15	=15
4AA\ 4A	.	(4cc\ 4ee	mf
2A^\ 2a	.	8.b\L) 8.dd#X	.
.	.	16b\Jk 16dd#	.
.	.	4cc\ 4ee	.
8.G\L 8.g	.	4b\ 4dd#	.
16F\Jk 16f	.	.	.
=16	=16	=16	=16
*	*	*^	*
8.E\L 8.e	.	4ee\	4cc\	.
16D\Jk 16d	.	.	.	.
8.C\L 8.c	.	2ee/ 2aa	8.a\L	.
16BB\Jk 16B	.	.	16b\Jk	<
4AA\ 4A	.	.	4cc\	.
4D\ 4d	.	(8.dd/L 8.gg	4a\	.
.	.	16ff/Jk	.	[[
*	*	*v	*v	*
!!LB
=17	=17	=17	=17
4E\ 4d	.	4g#X\) 4b 4ee	p
8.EE/L 8.E	.	4f'/ 4a 4dd	.
16EE/Jk 16E	.	.	.
4EE/ 4E	.	4e'/ 4g# 4cc	.
4EE/ 4E	.	4d'/ 4g# 4b	.
=18	=18	=18	=18
4AAA/ 4AA	.	[2c/ [>2e [2a	.
8.AA/L 8.A	.	.	.
16FF/Jk 16F	.	.	.
8.EE/L 8.E	.	8.c/L] 8.e] 8.a]	<
16DD/K 16D	.	(16e/Jk	.
8.CC/ 8.C	.	8.cc\L) 8.ee	.
16BBB/Jk 16BB	.	16cc\Jk 16ee	[[
=19	=19	=19	=19
4AAA/ 4AA	.	4cc\ 4ee	f
2A\ 2a^	.	(4b\ 4dd#X	.
.	.	4cc\) 4ee	.
8.G\L 8.g	.	(4b\ 4dd#	.
16F\Jk 16f	.	.	.
=20	=20	=20	=20
*	*	*^	*
8.E\L 8.e	.	4ee\)	4cc\	.
16D\Jk 16d	.	.	.	.
8.C\L 8.c	.	4ee/ (4aa	8.a\L	.
16BB\Jk 16B	.	.	16b\Jk	.
4AA\ 4A	.	8.aa/L)	4cc\ 4ee	.
.	.	16gg/K	.	.
((4C\ 4c	.	8.ff#X/	[4a\	.
.	.	16ee/Jk	.	.
!!LO:PB:g=original
=21	=21	=21	=21	=21
4BB\)) 4B	.	4dd#X/	4a\]	p
8.C\L 8.c	.	8.ee/L	8.a\L	.
16AA\Jk 16A	.	16ff#X/Jk	16cc\Jk	.
4BB\ 4B	.	4b/	4g\	.
4BBB/ 4BB	.	4dd#/	(4aT\	.
.	.	.	16qqa/LL	.
.	.	.	16qqb/JJ	.
*	*	*v	*v	*
=22	=22	=22	=22
4EE/ 4E	.	[2g\ [2ee)	.
4E\ 4e	.	.	.
4EE/ 4E	.	8.g/L] 8.ee]	.
.	.	(>[16e/K	.
4r	.	8.e/]) 8.g	.
.	.	16f#X/Jk 16a	.
=23	=23	=23	=23
4r	.	[2g/ [2b	.
!	!	!	!LO:DY:a
(4d#X\	.	.	>
4e\)	.	8.g/L] 8.b]	.
.	.	(>[16g/K	.
4r	.	8.g/]) 8.b	]
.	.	(16a/Jk 16cc	.
=24	=24	=24	=24
*	*	*^	*
4r	.	[2dd/)	4b\	.
!	!	!LO:TX:b:i:t= cresc poco a poco	!	!LO:DY:a
((4AA#X\ 4A#X	.	.	(4f#X\	>
4BB\)) 4B	.	8.dd/L]	8g\)	.
.	.	.	8ryy	.
.	.	16g/Jk	.	.
4r	.	8.d/L 8.b 8.dd	4ryy	]
.	.	16e/Jk 16cc#X 16ee	.	.
!!LB
=25	=25	=25	=25	=25
4r	.	[<2f/ [2ff	4dd\	.
!	!	!	!	!LO:DY:a
((4AA\ 4A	.	.	(4cc#X\	>
4BB-X\)) 4B-X	.	8.f\L] 8.ff]	8.dd\)	.
.	.	([<16f\K	16ryy	]
4r	.	8.f\]) 8.dd 8.ff	4ryy	.
.	.	16f\Jk 16dd 16ff	.	.
=26	=26	=26	=26	=26
4r	.	[<2f/ [2ff	4dd\	.
(4AAA/ 4AA	.	.	(4cc#X\	.
4BBB-X/) 4BB-X	.	((4f\] 4ff]	4dd\)	.
4AAA-X/ 4AA-X	.	8.f#X\L)) 8.ff#X	8.ccn\L	.
.	.	16f#\Jk 16ff#	16cc\Jk	.
*	*	*v	*v	*
=27	=27	=27	=27
4GGG/ 4GG	.	4g\ 4b 4gg	f
*tremolo	*	*	*
32AA-X\LLL	.	(4f\ 4cc 4ff	.
32A-X\	.	.	.
32AA-\	.	.	.
32A-\	.	.	.
32AA-\	.	.	.
32A-\	.	.	.
32AA-\	.	.	.
32A-\JJJ	.	.	.
4GG/ 4G	.	4g\) 4b 4gg	.
4AAA-X/ 4AA-	.	4cc\ 4ff 4ccc	.
=28	=28	=28	=28
*	*	*^	*
4GGG/ 4GG	.	4b\ 4dd 4gg 4bb	2ryy	ff
4r	.	8.G/L 8.g	.	.
.	.	16G/Jk 16g	.	.
4r	.	[<2G/ [2g	4r	.
4FF/ 4F	.	.	4d/	.
!!LB
=29	=29	=29	=29	=29
4EE/ 4E	.	4G/] 4g]	4c/	.
4DD/ 4D	.	8.G/L 8.g	4f\	.
.	.	16G/Jk 16g	.	.
4CC/ 4C	.	4G/ 4g	4e/	.
4BBB/ 4BB	.	4G/ 4g	4d/	.
*	*	*v	*v	*
=30	=30	=30	=30
4AAA/ 4AA	.	[2c/ [>2e [2cc	.
((4GGG#X/ 4GG#X	.	.	.
8.AAA/L)) 8.AA	.	8.c/L] 8.e] 8.cc]	.
16BBB/Jk 16BB	.	16d/K 16e 16b	.
[4CC/ [4C	.	8.c/ 8.e 8.a	.
.	.	16B/Jk 16e 16g	.
=31	=31	=31	=31
*	*	*^	*
4CC/] 4C]	.	4e/ 4f#X	4A/	.
4BBB/ 4BB	.	8.B/L 8.e 8.f#	4ryy	>
.	.	16B/Jk 16e 16f#	.	.
4AAA/ 4AA	.	4e/ 4f#	4c/	.
4BBB/ 4BB	.	(8.g/L	4B\ 4d#X	.
.	.	16a/Jk	.	]
*	*	*v	*v	*
=32	=32	=32	=32
((4EE/ 4E	.	[2B/) [2e [2g	.
8.FFn/L)) 8.Fn	.	.	<
16FF/Jk 16F	.	.	.
4EE/ 4E	.	8.B/L] 8.e] 8.g]	.
.	.	16B/K 16g 16b	.
4DD/ 4D	.	8.c/ 8.f 8.cc	.
.	.	16d/Jk 16f 16dd	[[
!!LB
=33	=33	=33	=33
4CC/ 4C	.	[2e/ [>2g [2ee	.
8.DD/L 8.D	.	.	.
16DD/Jk 16D	.	.	.
4EE/ 4E	.	8.e/L] 8.g] 8.ee]	.
.	.	16d/K 16g 16dd	.
4FF#X/ 4F#X	.	8.c/ 8.e 8.cc	.
.	.	16c/Jk 16e-X 16a	.
=34	=34	=34	=34
*	*	*^	*
4GG/ 4G	.	4d/ 4g	4B/	.
4FFn/ 4Fn	.	8.g/L	4B\ 4d	.
.	.	16g/Jk	.	.
4EE/ 4E	.	8.G/L 8.c 8.g	2ryy	.
.	.	16B/K 16g 16b	.	.
4DD/ 4D	.	8.c/ 8.f 8.cc	.	.
.	.	16d/Jk 16f 16dd	.	.
=35	=35	=35	=35	=35
4CC/ 4C	.	[2ee/	4e\ 4g	.
8.GGG#X/L 8.GG#X	.	.	((4f\ (<4b	.
16GGG#/Jk 16GG#	.	.	.	.
4AAA/ 4AA	.	8.cc/L)) 8.ee]	(4.e\)	.
.	.	16b/K 16dd	.	.
4FFF#X/ 4FF#X	.	8.e/) 8.a 8.cc	.	.
.	.	.	8ryy	.
.	.	16c/Jk 16e-X 16a	.	.
=36	=36	=36	=36	=36
4GGG/ 4GG	.	4g/	4B/ 4d	.
((4FFn/ 4Fn	.	8.g/L	(<4B\ 4d	.
.	.	16g/Jk	.	.
4EE/)) 4E	.	4g/	4c/)	.
4DD/ 4D	.	8.B-X/L 8.b-X	4e\ 4g	.
.	.	16A/Jk 16a	.	.
*	*	*v	*v	*
!!LB
=37	=37	=37	=37
4CC#X/ 4C#X	.	4A/ 4g 4a	.
8.AAA/L 8.AA	.	[4g\ [4a [4gg	.
16BBB/Jk 16BB	.	.	.
4CC#/ 4C#	.	8.g\L] 8.a] 8.gg]	.
.	.	16g\K 16a 16gg	.
4AAA/ 4AA	.	8.g\ 8.a 8.ff	.
.	.	16g\Jk 16a 16ee	.
=38	=38	=38	=38
*	*	*^	*
4DD/ 4D	.	4a'\ 4ff	4f\	.
4EE/ 4E	.	4a'\ 4ee	4g\	.
4FF/ 4F	.	4a/ 4dd	4f'/	.
((4FF#X/ 4F#X	.	(4aT/ 4cc	4e\	.
.	.	16qqb/LL	.	.
.	.	16qqcc/JJ	.	.
=39	=39	=39	=39	=39
4GG/)) 4G	.	4ee/)	4e\ 4g	>
2GGG/ 2GG	.	(8.a/L	(4e-X\ 4f#X	.
.	.	16cc/Jk	.	.
.	.	4b/)	4d\) 4fn	.
4GG/ 4G	.	(8.a/L	4d\ 4f	.
.	.	16b/Jk	.	]
*	*	*v	*v	*
=40	=40	=40	=40
8CC/ 8C	.	8c/) 8e 8cc	p
8r	.	8r	.
4C\ 4c	.	8.e/L 8.g 8.cc	.
.	.	16e/Jk 16g 16cc	.
4CC/ 4C	.	4e/ 4g 4cc	.
4r	.	(4c/	.
!!LO:PB:g=original
=41||	=41||	=41||	=41||
*k[b-]	*	*k[b-]	*
!	!	!LO:TX:a:t=Con energia.	!
8FF/	.	8f/)	p
8r	.	8r	.
8.C\L 8.A	.	[4f^/	.
16C\Jk 16A	.	.	.
8C\ 8A	.	8.f/L]	.
8r	.	.	.
.	.	(>16g/K	.
((4C\ 4B-	.	8.d/	.
.	.	16e/Jk	.
=42	=42	=42	=42
*	*	*^	*
8F\)) 8A	.	8.f/L)	2ryy	.
8r	.	.	.	.
.	.	(>16g/K	.	.
((4C\ 4B-	.	8.d/	.	.
.	.	16e/Jk	.	.
8F\)) 8A	.	8.f/L)	4ryy	.
8r	.	.	.	.
.	.	(>16g/K	.	.
((4FF/ 4F	.	8.a/	(4f\	.
.	.	16b-/Jk	.	.
=43	=43	=43	=43	=43
8EE/)) 8E	.	4cc/)	4g\)	.
8r	.	.	.	.
!LO:TUP:a	!	!	!	!
*Xtremolo	*	*	*	*
12E\L 12G	.	[4cc/	[4c\ [4g	.
12E\ 12G	.	.	.	.
12E\J 12G	.	.	.	.
8E\ 8G	.	(8.cc/L]	8c\] 8g]	.
8r	.	.	8ryy	.
.	.	16dd/K	.	.
*clefG2	*	*	*	*
((4e/ 4a-X	.	8.bn/	4ryy	<
.	.	16dd/Jk	.	.
*	*	*v	*v	*
=44	=44	=44	=44
8e-X/)) 8g	.	8.cc/L)	.
8r	.	.	.
.	.	(16dd/K	.
((4d/ 4f#X	.	8.a/	[
.	.	16cc/Jk	.
8d-X/)) 8fn	.	8.b-/L)	.
8r	.	.	.
.	.	(16b-/K	>
((4cn/ 4e-X	.	8.f#X/	.
.	.	16a/Jk	]]
*clefF4	*	*	*
!!LB
=45	=45	=45	=45
8B-\)) 8d	.	8g/)	.
8r	.	8r	.
12G\L 12B- 12d	.	[4g^/	.
12G\ 12B- 12d	.	.	.
12G\J 12B- 12d	.	.	.
8G\ 8B- 8d	.	8.g/L]	.
8r	.	.	.
.	.	(>16a/K	.
((>[4G\ 4c 4e-X	.	8.f#X/	.
.	.	16a/Jk	.
=46	=46	=46	=46
*	*	*^	*
8G\])) 8B- 8d	.	8.g/L)	2ryy	.
8r	.	.	.	.
.	.	(>16a/K	.	.
((>[4G\ 4c 4e-X	.	8.f#X/	.	.
.	.	16a/Jk	.	.
8G\])) 8B- 8d	.	8.g/L)	4ryy	.
8r	.	.	.	.
.	.	(16a/Jk	.	.
((4GG/ 4G	.	8.b-/L	(4g\	.
.	.	16cc/Jk	.	.
=47	=47	=47	=47	=47
8FF/)) 8F	.	8a\)) 8dd	4ryy	.
8r	.	8r	.	.
*Xtuplet	*	*	*	*
12F\L 12A	.	(4a/ [4dd	[4d\	.
12F\ 12A	.	.	.	.
12F\J 12A	.	.	.	.
8E\ 8Bn	.	8.dd/L])	4d\] 4g#X	<
8r	.	.	.	.
.	.	(16ff/Jk	.	.
(<4G#X\ [4e	.	8.ee/L	(4bn\	.
.	.	16dd/Jk	.	.
=48	=48	=48	=48	=48
8A\) 8e]	.	8.cc/L)	8a\)	[
8r	.	.	8r	.
.	.	(<16dd/Jk	.	.
((4F#X\ 4e-X	.	8.a/L	4ryy	.
.	.	16cc/Jk	.	.
8G\)) 8d	.	8.b-/L)	2ryy	>
8r	.	.	.	.
.	.	(16g/K	.	.
((4C\ 4B-	.	8.d/	.	.
.	.	16e/Jk	.	]
*	*	*v	*v	*
!!LB
=49	=49	=49	=49
4F\)) 4A	.	8f/)	.
.	.	8r	.
!	!	!	!LO:DY:b
8r	.	[4f^\ [4ff	p
12F\L 12A 12c	.	.	.
12F\ 12A 12c	.	.	.
.	.	8.f\L] 8.ff]	.
12F\J 12A 12c	.	.	.
8F\ 8A 8c	.	.	.
.	.	(16g\K 16gg	.
((4C\ 4B-	.	8.dd\	.
.	.	16e\Jk 16ee	.
=50	=50	=50	=50
8F\)) 8A	.	8.f\L) 8.ff	.
8r	.	.	.
.	.	(16g\K 16gg	.
((4C\ 4B-	.	8.dd\	.
.	.	16e\Jk 16ee	.
8F\)) 8A	.	8.f\L) 8.ff	.
8r	.	.	.
.	.	(16g\K 16gg	.
((4F\ 4A	.	8.a\ 8.aa	.
.	.	16b-\Jk 16bb-	.
=51	=51	=51	=51
8E\)) 8G	.	8cc\) 8ccc	.
*clefG2	*	*	*
8r	.	8r	.
12e/L 12g	.	[4cc\ [4ccc	.
12e/ 12g	.	.	.
12e/J 12g	.	.	.
4e/ 4g	.	8.cc\L] 8.ccc]	.
.	.	(16dd\K 16ddd	.
((4e/ 4a-X	.	8.bbn\	.
.	.	16ddd\Jk	<
=52	=52	=52	=52
8e-X/)) 8g	.	8.ccc\L)	.
8r	.	.	.
.	.	(16dd\K 16ddd	.
((4d/ 4f#X	.	8.aa\	.
.	.	16ccc\K	.
8d-X/)) 8fn	.	8.bb-\J)	.
8r	.	.	.
.	.	(16b-\KL 16bb-	.
((4c/ 4e-X	.	8.ff#X\	.
.	.	16aa\Jk	[[
!!LB
=53	=53	=53	=53
8B-/)) 8d	.	8gg\)	.
*clefF4	*	*	*
8r	.	8r	.
!	!	!LO:TX:b:i:t=cresc.	!
12G\L 12B- 12d	.	[4g^\ [4ff	.
12G\ 12B- 12d	.	.	.
12G\J 12B- 12d	.	.	.
4G\ 4B- 4d	.	8.g\L] 8.ff]	.
.	.	(16a\K 16aa	.
((>[4G\ 4c 4e-X	.	8.ff#X\)	.
.	.	(16a\Jk 16aa	.
=54	=54	=54	=54
8G\])) 8B- 8d	.	8.g\L) 8.gg	.
8r	.	.	.
.	.	16a\K 16aa	.
((4G\ 4B-	.	8.b-\ 8.bb-	.
.	.	16cc\Jk 16ccc	.
8F\)) 8A	.	8.dd\L 8.ddd	.
8r	.	.	.
.	.	16ff\K 16fff	.
(((4G#X\ 4Bn 4f	.	8.ee\ 8.eee	.
.	.	16dd\Jk 16ddd	.
=55	=55	=55	=55
8A\))) 8c 8e	.	8.cc\L 8.ccc	.
8r	.	.	.
.	.	(16dd\K 16ddd	.
(((4F#X\ 4A 4e-X	.	8.aa\	.
.	.	16ccc\Jk	.
8G\))) 8B-X 8d	.	8.bb-\L)	.
8r	.	.	.
.	.	(16g\K 16gg	>
(4C\ 4B-	.	8.dd\	.
.	.	16ee\Jk	.
=56	=56	=56	=56
8F\) 8A	.	8ff\)	]
8r	.	8r	.
8.F\L 8.A 8.c	.	8.f\L 8.a 8.ff	p
16F\Jk 16A 16c	.	16f\Jk 16a 16ff	.
8F\ 8A 8c	.	8f\ 8a 8ff	<
8r	.	8r	.
4r	.	8.cc\L 8.ccc	.
.	.	16ee-X\Jk 16eee-X	.
!!LB
=57||	=57||	=57||	=57||
*ped	*	*	*
!LO:TX:b:i:t=con	!	!LO:TX:a:t=Cantabile e poco sostenuto.	!
4BBB-/ 4BB-	.	[2dd-X\ [2ddd-X	[
8.F\L 8.B- 8.d-X	.	.	.
16F\Jk 16B- 16d-	.	.	.
*	*	*Xtuplet	*
4F\ 4B- 4d-	.	12dd-\L] 12ddd-]	.
.	.	(12b-\ 12bb-	.
.	.	12f\J 12ff	.
4D-X\ 4E-X 4G	.	8.g\L 8.gg	.
.	.	16b-\Jk 16bb-	.
=58	=58	=58	=58
4CC/ 4C	.	[2e-X/) [2ee-X	.
12E-X\L 12A-X 12c	.	.	.
12E-\ 12A- 12c	.	.	.
12E-\J 12A- 12c	.	.	.
4E-\ 4A- 4c	.	8.e-/L] 8.ee-]	.
.	.	16e-/Jk 16ee-	.
4En\ 4A- 4c	.	(8.a-X\L 8.aa-X	.
.	.	16g\Jk 16gg	.
=59	=59	=59	=59
4DD-X/	.	[2f\) [2ff	.
12D-X\L 12A-X 12B-	.	.	.
12D-\ 12A- 12B-	.	.	.
12D-\J 12A- 12B-	.	.	.
4D-\ 4A- 4B-	.	12f\L] 12ff]	.
.	.	(12en\ 12een	.
.	.	12f\J 12ff	.
4Dn\ 4A- 4B-	.	12g\L 12gg	.
.	.	12b-\ 12bb-	.
.	.	12a-X\J) 12aa-X	.
!!LO:PB:g=original
=60	=60	=60	=60
4EE-X/	.	2.g\ 2.gg	.
8.E-X\L 8.G 8.B-	.	.	.
16E-\Jk 16G 16B-	.	.	.
4E-\ 4G 4B-	.	.	.
4E-\ 4G 4d-X	.	(8.b-\L 8.bb-	.
.	.	16dd-X\Jk 16ddd-X	.
=61	=61	=61	=61
4EEn/	.	[2cc\) [2ccc	.
8.En\L 8.B- 8.c	.	.	.
16E\Jk 16B- 16c	.	.	.
4E\ 4B- 4c	.	12cc\L] 12ccc]	.
.	.	(12b-\ 12bb-	.
.	.	12dd-X\J 12ddd-X	.
4E\ 4B- 4c	.	12cc\L 12ccc	.
.	.	12g\ 12gg	.
.	.	12b-\J 12bb-	.
=62	=62	=62	=62
4FF/	.	[2a-X\) [2aa-X	.
12F\L 12A-X 12c	.	.	.
12F\ 12A- 12c	.	.	.
12F\J 12A- 12c	.	.	.
4F\ 4A- 4c	.	12a-\L] 12aa-]	.
.	.	(12cc\ 12ccc	.
.	.	12een\J 12eeen	.
4D-X\ 4A- 4B-	.	8.gg\L 8.ggg	.
.	.	16ff\Jk 16fff	.
!!LB
=63	=63	=63	=63
4EE-X/ 4E-X	.	[2ee-X\) [2eee-X	.
8.E-\L 8.A-X 8.c	.	.	.
16E-\Jk 16A- 16c	.	.	.
4E-\ 4A- 4c	.	8.ee-\L] 8.eee-]	.
.	.	(16f\Jk 16ff	.
4E-\ 4G 4d-X	.	8.g\L) 8.gg	.
.	.	(16dd-X\Jk 16ddd-X	.
=64	=64	=64	=64
4AAA-X/ 4AA-X	.	2.cc\) 2.ccc	.
8.E-X\L 8.A-X 8.c	.	.	.
16E-\Jk 16A- 16c	.	.	.
4E-\ 4A- 4c	.	.	.
4r	.	(8.cc\L 8.ccc	<
.	.	16ee-X\Jk 16eee-X	[[
=65	=65	=65	=65
4BBB-/ 4BB-	.	[2dd-X\) [2ddd-X	.
8.F\L 8.B- 8.d-X	.	.	.
16F\Jk 16B- 16d-	.	.	.
4F\ 4B- 4d-	.	12dd-\L] 12ddd-]	.
.	.	(12b-\ 12bb-	.
.	.	12f\J 12ff	.
4D-X\ 4E-X 4G	.	8.g\L 8.gg	.
.	.	16b-\Jk 16bb-	.
!!LB
=66	=66	=66	=66
4CC/ 4C	.	[2e-X/) [2ee-X	.
12E-X\L 12A-X 12c	.	.	.
12E-\ 12A- 12c	.	.	.
12E-\J 12A- 12c	.	.	.
4E-\ 4A- 4c	.	8.e-/L] 8.ee-]	.
.	.	(16e-/Jk 16ee-	<
4En\ 4A- 4c	.	8.a-X\L) 8.aa-X	.
.	.	16g\Jk 16gg	[
=67	=67	=67	=67
4DD-X/	.	((2f\ 2ff	.
12D-X\L 12A-X 12B-	.	.	.
12D-\ 12A- 12B-	.	.	.
12D-\J 12A- 12B-	.	.	.
4D-\ 4A- 4B-	.	12f\L)) 12ff	.
.	.	(12en\ 12een	.
.	.	12f\J 12ff	.
4Dn\ 4A- 4B-	.	12g\L 12gg	.
.	.	12b-\ 12bb-	.
.	.	12a-X\J 12aa-X	.
=68	=68	=68	=68
4EE-X/ 4E-X	.	2.g\) 2.gg	.
8.E-\L 8.G 8.B-	.	.	.
16E-\Jk 16G 16B-	.	.	.
4E-\ 4G 4B-	.	.	.
4E-\ 4G 4d-X	.	(8.b-\L 8.bb-	.
.	.	16dd-X\Jk 16ddd-X	.
!!LB
=69	=69	=69	=69
!	!	!LO:TX:b:i:t=cresc.	!
4EEn/ 4En	.	2.cc\) 2.ccc	.
8.E\L 8.B- 8.c	.	.	.
16E\Jk 16B- 16c	.	.	.
4E\ 4B- 4c	.	.	.
4E\ 4B- 4c	.	8.gg\L 8.ggg	.
.	.	16bb-\Jk 16bbb-	.
=70	=70	=70	=70
4FF/ 4F	.	((2aa-X\ 2aaa-X	.
12F\L 12A-X 12c	.	.	.
12F\ 12A- 12c	.	.	.
12F\J 12A- 12c	.	.	.
4F\ 4A- 4c	.	12aa-\L)) 12aaa-	.
.	.	12gg'\ 12ggg	.
.	.	12ff'\J 12fff	.
4F#X\ 4An 4e-X	.	12ee-X'\L 12eee-X	.
.	.	12dd'\ 12ddd	.
.	.	12cc'\J 12ccc	.
=71	=71	=71	=71
!	!	!LO:TX:b:i:t=poco string.	!
4GG/	.	((2bn\ 2bbn	.
8.G\L 8.Bn 8.d	.	.	.
16G\Jk 16B 16d	.	.	.
4G\ 4B 4d	.	12b\L)) 12bb	.
.	.	12dd'\ 12ddd	.
.	.	12ff'\J 12fff	.
4F#X\ 4An (4e-X	.	12ee-X'\L 12eee-X	.
.	.	12dd'\ 12ddd	.
.	.	12cc'\J 12ccc	.
!!LB
=72	=72	=72	=72
12G\L 12Bn 12d)	.	12bn\L 12bbn	ff
12D'\	.	12d'\ 12dd	.
12F'\J	.	12f'\J 12ff	.
12E-X'\L	.	12e-X'/L 12ee-X	.
12D'\	.	12d'/ 12dd	.
12C\J	.	12c'/J 12cc	.
12BBn'/L	.	12Bn'/L 12bn	.
12E-'/	.	12e-'/ 12ee-	.
12D'/J	.	12d'/J 12dd	.
12C'/L	.	12c'/L 12cc	.
12BB-X'/	.	12B-X'/ 12b-X	.
12AA-X'/J	.	12A-X'/J 12a-X	.
=73	=73	=73	=73
!	!	!LO:TX:a:t=Tempo I.	!
8GG/	.	8G/ 8g	.
8r	.	8r	.
*tremolo	*	*	*
32GGG/LLL	.	2G/ 2g	.
32GG/	.	.	.
32GGG/	.	.	.
32GG/	.	.	.
32GGG/	.	.	.
32GG/	.	.	.
32GGG/	.	.	.
32GG/	.	.	.
32GGG/	.	.	.
32GG/	.	.	.
32GGG/	.	.	.
32GG/	.	.	.
32GGG/	.	.	.
32GG/	.	.	.
32GGG/	.	.	.
32GG/	.	.	.
32GGG/	.	8.G/L 8.g	<
32GG/	.	.	.
32GGG/	.	.	.
32GG/	.	.	.
32GGG/	.	.	.
32GG/	.	.	.
32GGG/	.	16G/Jk 16g	.
32GG/JJJ	.	.	.
=74	=74	=74	=74
32GGG/LLL	.	4G/ 4g	.
32GG/	.	.	.
32GGG/	.	.	.
32GG/	.	.	.
32GGG/	.	.	.
32GG/	.	.	.
32GGG/	.	.	.
32GG/	.	.	.
32GGG/	.	8.G/L 8.g	.
32GG/	.	.	.
32GGG/	.	.	.
32GG/	.	.	.
32GGG/	.	.	.
32GG/	.	.	.
32GGG/	.	16G/Jk 16g	.
32GG/JJJ	.	.	.
32GGG/LLL	.	4G/ 4g	.
32GG/	.	.	.
32GGG/	.	.	.
32GG/	.	.	.
32GGG/	.	.	.
32GG/	.	.	.
32GGG/	.	.	.
32GG/	.	.	.
32GGG/	.	8.G/L 8.g	.
32GG/	.	.	.
32GGG/	.	.	.
32GG/	.	.	.
32GGG/	.	.	.
32GG/	.	.	.
32GGG/	.	16G/Jk 16g	.
32GG/JJJ	.	.	[
!!LO:PB:g=original
=75||	=75||	=75||	=75||
*k[]	*	*k[]	*
*	*	*	*
*	*	*^	*
8GGG/	.	4G/ 4g	4ryy	.
8r	.	.	.	.
4BBB/ 4BB	.	8.G/L 8.g	4d\	p
.	.	16g/Jk	.	.
4CC/ 4C	.	4G/ 4e 4g	2ryy	.
4BBB/ 4BB	.	4G/ 4d 4g	.	.
*	*	*v	*v	*
=76	=76	=76	=76
4AAA/ 4AA	.	[2c^/ [>2e [2cc	.
((4GGG#X/ 4GG#X	.	.	.
8.AAA/L)) 8.AA	.	8.c/L] 8.e] 8.cc]	.
16BBB/Jk 16BB	.	16d/Jk 16e 16b	.
[4CC/ [4C	.	8.c/L 8.e 8.a	.
.	.	16B/Jk 16e 16g	.
=77	=77	=77	=77
*	*	*^	*
4CC/] 4C]	.	4e/ 4f#X	4A/	.
4BBB/ 4BB	.	8.B/L 8.e 8.f#	4ryy	.
.	.	16B/Jk 16e 16f#	.	.
4AAA/ 4AA	.	4f#/	4c\ 4e	.
4BBB/ 4BB	.	8.g/L	4B\ 4d#X	.
.	.	16a/Jk	.	.
*	*	*v	*v	*
=78	=78	=78	=78
((4EE/ 4E	.	[2B/ [>2e [2g	.
8.FFn/L)) 8.Fn	.	.	.
16FF/Jk 16F	.	.	.
4EE/ 4E	.	8.B/L] 8.e] 8.g]	.
.	.	16B/K 16g 16b	<
4DD/ 4D	.	8.c/ 8.f 8.cc	.
.	.	16d/Jk 16f 16dd	[[
!!LB
=79	=79	=79	=79
!	!	!LO:TX:b:i:t=poco cresc.	!
4CC/ 4C	.	[2e/ [>2g [2ee	.
8.DD/L 8.D	.	.	.
16DD/Jk 16D	.	.	.
4EE/ 4E	.	8.e/L] 8.g] 8.ee]	.
.	.	16d/K 16g 16dd	.
4FF#X/ 4F#X	.	8.c/ 8.e 8.cc	.
.	.	16c/Jk 16e-X 16a	.
=80	=80	=80	=80
*	*	*^	*
4GG/ 4G	.	4g/	4B\ 4d	.
4FFn/ 4Fn	.	8.g/L	4B\ 4d	.
.	.	16g/Jk	.	.
4EE/ 4E	.	8.G/L 8.c 8.g	2ryy	.
.	.	16B/K 16g 16b	.	.
4DD/ 4D	.	8.c/ 8.f 8.cc	.	.
.	.	16d/Jk 16f 16dd	.	.
=81	=81	=81	=81	=81
4CC/ 4C	.	[2ee/	4e\ 4g	.
8.GGG#X/L 8.GG#X	.	.	(<(<4f\ 4b	.
16GGG#/Jk 16GG#	.	.	.	.
4AAA/ 4AA	.	8.cc/L) 8.ee]	(<4e\)	.
.	.	16b/K 16dd	.	.
4FFF#X/ 4FF#X	.	8.a/ 8.cc	8.d/L)	.
.	.	16e-X/Jk 16a	16c/Jk	.
=82	=82	=82	=82	=82
4GGG/ 4GG	.	4g/	4B\	.
4FF/ 4F	.	8.g/L	(4B\ 4d	.
.	.	16g/Jk	.	.
4EE/ 4E	.	4g/	4c\)	.
4DD/ 4D	.	8.B-X/L 8.b-X	4e\ 4g	.
.	.	16A/Jk 16a	.	.
*	*	*v	*v	*
!!LB
=83	=83	=83	=83
4CC#X/ 4C#X	.	4A/ 4g 4a	.
8.AAA^/L 8.AA	.	[4g^\ [4a [4gg	f
16BBB/Jk 16BB	.	.	.
4CC#/ 4C#	.	8.g\L] 8.a] 8.gg]	.
.	.	16g\Jk 16a 16gg	.
4AAA/ 4AA	.	8.g\L 8.a 8.gg	.
.	.	16g\Jk 16a 16gg	.
=84	=84	=84	=84
4DD/ 4D	.	4f'\ 4a 4ff	.
4EE/ 4E	.	4g'\ 4a 4ee	.
4FF/ 4F	.	4f'/ 4a 4dd	.
4FF#X/ 4F#X	.	(>([4et/ 4a 4cc	.
.	.	16qqb/LL	.
.	.	16qqcc/JJ	.
=85	=85	=85	=85
*	*	*^	*
4GG/ 4G	.	4ee/)	4e\]) 4g	.
2GGG^/ 2GG	.	8.a^/L	((4e-X\ 4f#X	.
.	.	16cc/Jk	.	.
.	.	4b/	4d/)) 4fn	>
4GG/ 4G	.	(8.a/L	4d\ 4f	.
.	.	16b/Jk	.	]
*	*	*v	*v	*
=86	=86	=86	=86
8CC/ 8C	.	8c/) 8e 8cc	.
8r	.	8r	.
4C\ 4c	.	8.e/L 8.g 8.cc	p
.	.	16e/Jk 16g 16cc	.
4CC/ 4C	.	8.e/L 8.g 8.cc	.
.	.	(16e/Jk	.
4r	.	8.cc\L) 8.ee	.
.	.	16cc\Jk 16ee	.
!!LB
=87	=87	=87	=87
4AA\ 4A	.	(4cc\ 4ee	mf
2F^<\ 2a	.	8.b\L) 8.dd#X	.
.	.	16b\Jk 16dd#	.
.	.	4cc\ 4ee	.
8.G\L 8.g	.	4b\ 4dd#	.
16F\Jk 16f	.	.	.
=88	=88	=88	=88
*	*	*^	*
8.E\L 8.e	.	4ee\	4cc\	.
16D\K 16d	.	.	.	.
8.C\ 8.c	.	2ee/ 2aa	8.a\L	.
16BB\Jk 16B	.	.	16b\Jk	.
4AA\ 4A	.	.	4cc\	<
4D\ 4d	.	(8.dd/L 8.gg	4a\	[[
.	.	16ff/Jk	.	.
*	*	*v	*v	*
=89	=89	=89	=89
4E\ 4e	.	4g#X\) 4b 4ee	.
8.EE/L 8.E	.	4f'/ 4a 4dd	p
16EE/Jk 16E	.	.	.
4EE/ 4E	.	4e'/ 4g# 4cc	.
4EE/ 4E	.	4d'/ 4g# 4b	.
=90	=90	=90	=90
4AAA/ 4AA	.	[2c/ [>2e [2a	<
8.AA\L 8.A	.	.	.
16FF\Jk 16F	.	.	.
8.EE/L 8.E	.	8.c/L] 8.e] 8.a]	.
16DD/K 16D	.	(16e/Jk	.
8.CC/ 8.C	.	8.cc\L) 8.ee	.
16BBB/Jk 16BB	.	16cc\Jk 16ee	[[
!!LB
=91	=91	=91	=91
4AAA/ 4AA	.	4cc\ 4ee	f
2F^<\ 2a	.	(4b\ 4dd#X	.
.	.	4cc\) 4ee	.
8.G\L 8.g	.	(4b\ 4dd#	.
16F\Jk 16f	.	.	.
=92	=92	=92	=92
*	*	*^	*
8.E\L 8.e	.	4ee\)	4cc\	.
16D\K 16d	.	.	.	.
8.C\ 8.c	.	4ee/ [4aa	8.a\L	.
16BB\Jk 16B	.	.	16b\Jk	.
4AA\ 4A	.	8.aa/L]	4cc\ 4ee	.
.	.	16gg/Jk	.	.
(4C\ (4c	.	8.ff#X/L	[4a\	.
.	.	16ee/Jk	.	.
=93	=93	=93	=93	=93
4BB\) 4B)	.	4dd#X/	4a\]	p
8.C\L 8.c	.	8.ee/L	8.a\L	.
16AA\Jk 16A	.	16ff#X/Jk	16cc\Jk	.
4BB\ 4B	.	4b/	4g\	.
4BBB/ 4BB	.	4dd#/	(<4aT\	.
.	.	.	16qqg/LL	.
.	.	.	16qqa/JJ	.
*	*	*v	*v	*
=94	=94	=94	=94
4EE/ 4E	.	[2g\) [2ee	.
4E\ 4e	.	.	.
4EE/ 4E	.	8.g/L] 8.ee]	.
.	.	([>16e/K	<
4r	.	8.e/]) 8.g	.
.	.	16f#X/Jk 16a	[[
!!LB
=95	=95	=95	=95
4r	.	[2g/ [2b	.
(4d#X\	>	.	.
4e\)	]	8.g/L] 8.b]	.
.	.	([>16g/Jk	.
4r	.	8.g/L]) 8.b	.
.	.	(16a/Jk 16cc	.
=96	=96	=96	=96
*	*	*^	*
4r	.	[2dd/)	4b\	.
((4AA#X\ 4A#X	.	.	(4f#X\	>
!	!	!LO:TX:b:i:t=cresc. poco a poco	!	!
4BB\)) 4B	.	8.dd/L]	8g\)	.
.	.	.	8ryy	]
.	.	16g/Jk	.	.
4r	.	8.d/L 8.b 8.dd	4ryy	.
.	.	16e/Jk 16cc#X 16ee	.	.
=97	=97	=97	=97	=97
4r	.	[<2f/ [2ff	4dd\	.
!	!	!	!	!LO:DY:a
((4AA\ 4A	.	.	(4cc#X\	>
4BB-X\)) 4B-X	.	8.f\L] 8.dd) 8.ff]	2r)yy	]]
.	.	([<16f\Jk	.	.
4r	.	8.f\L]) 8.dd 8.ff	.	.
.	.	16f\Jk 16dd 16ff	.	.
=98	=98	=98	=98	=98
4r	.	[<2f/ [2ff	4dd\	.
(4AAA/ 4AA	.	.	(4cc#X\	.
4BBB-X/) 4BB-X	.	((4f\] 4ff]	4dd\)	.
4AAA-X/ 4AA-X	.	8.f#X/L)) 8.ccn 8.ff#X	4ryy	.
.	.	16f#/Jk 16cc 16ff#	.	.
*	*	*v	*v	*
!!LO:PB:g=original
=99	=99	=99	=99
4GGG/ 4GG	.	4g\ 4b 4gg	f
32AA-X\LLL	.	(4f#X\ 4cc 4ff#X	.
32A-X\	.	.	.
32AA-\	.	.	.
32A-\	.	.	.
32AA-\	.	.	.
32A-\	.	.	.
32AA-\	.	.	.
32A-\JJJ	.	.	.
4GG/ 4G	.	4g\) 4b 4gg	.
4AAA-X/ 4AA-	.	4cc\ 4ff# 4ccc	.
=100	=100	=100	=100
*	*	*^	*
4GGG/ 4GG	.	4dd\ 4gg 4bb	4b\	ff
4r	.	8.G/L 8.g	4ryy	.
.	.	16G/Jk 16g	.	.
4r	.	[<2G/ [2g	4rdd	.
4FF/ 4F	.	.	4d/	.
=101	=101	=101	=101	=101
4EE/ 4E	.	4G/] 4g]	4c/	.
4DD/ 4D	.	8.G/L 8.g	4f\	.
.	.	16G/Jk 16g	.	.
4CC/ 4C	.	4G/ 4g	4e/	.
4BBB/ 4BB	.	4G/ 4g	4d/	.
*	*	*v	*v	*
=102	=102	=102	=102
4AAA/ 4AA	.	[2c/ [>2e [2cc	.
((4GGG#X/ 4GG#X	.	.	.
8.AAA/L)) 8.AA	.	8.c/L] 8.e] 8.cc]	.
16BBB/Jk 16BB	.	16d/K 16e 16b	.
[4CC/ [4C	.	8.c/ 8.e 8.a	.
.	.	16B/Jk 16e 16g	.
!!LB
=103	=103	=103	=103
*	*	*^	*
4CC/] 4C]	.	4e/ 4f#X	4A/	>
4BBB/ 4BB	.	8.B/L 8.e 8.f#	4ryy	.
.	.	16B/Jk 16e 16f#	.	.
4AAA/ 4AA	.	4c/ 4e 4f#	4ryy	]]
4BBB/ 4BB	.	(8.g/L	4B\ 4d#X	.
.	.	16a/Jk	.	.
*	*	*v	*v	*
=104	=104	=104	=104
((4EE/ 4E	.	[2B/ [>2e [2g)	.
8.FFn/L)) 8.Fn	.	.	.
16FF/Jk 16F	.	.	.
4EE/ 4E	.	8.B/L] 8.e] 8.g]	<
.	.	16B/K 16g 16b	.
4DD/ 4D	.	8.c/ 8.f 8.cc	.
.	.	16d/Jk 16f 16dd	[[
=105	=105	=105	=105
4CC/ 4C	.	[2e/ [>2g [2ee	.
8.DD/L 8.D	.	.	.
16DD/Jk 16D	.	.	.
4EE/ 4E	.	8.e/L] 8.g] 8.ee]	.
.	.	16d/K 16g 16dd	.
4FF#X/ 4F#X	.	8.c/ 8.e 8.cc	.
.	.	16c/Jk 16e-X 16a	.
=106	=106	=106	=106
*	*	*^	*
4GG/ 4G	.	4d/ 4g	4B/	.
4FFn/ 4Fn	.	8.g/L	4B\ 4d	.
.	.	16g/Jk	.	.
4EE/ 4E	.	8.G/L 8.c 8.g	2ryy	.
.	.	16B/K 16g 16b	.	.
4DD/ 4D	.	8.c/ 8.f 8.cc	.	.
.	.	16d/Jk 16f 16dd	.	.
!!LB
=107	=107	=107	=107	=107
4CC/ 4C	.	[2ee/	4e\ 4g	.
8.GGG#/L 8.GG#	.	.	((4f\ (<4b	.
16GGG#/Jk 16GG#	.	.	.	.
4AAA/ 4AA	.	8.cc/L)) 8.ee]	(4e\)	.
.	.	16b/K 16dd	.	.
4FFF#X/ 4FF#X	.	8.e/) 8.a 8.cc	4ryy	.
.	.	16c/Jk 16e-X 16a	.	.
=108	=108	=108	=108	=108
4GGG/ 4GG	.	4g/	4B/ 4d	.
((4FFn/ 4Fn	.	8.g/L	(<4B\ 4d	.
.	.	16g/Jk	.	.
4EE/)) 4E	.	4g/	4c/)	.
4DD/ 4D	.	8.B-X/L 8.b-X	4e\ 4g	.
.	.	16A/Jk 16a	.	.
*	*	*v	*v	*
=109	=109	=109	=109
4CC#X/ 4C#X	.	4A/ 4g 4a	.
8.AAA/L 8.AA	.	[4g\ [4a [4gg	.
16BBB/Jk 16BB	.	.	.
4CC#/ 4C#	.	8.g\L] 8.a] 8.gg]	.
.	.	16g\K 16a 16gg	.
4AAA/ 4AA	.	8.g\ 8.a 8.ff	.
.	.	16g\Jk 16a 16ee	.
=110	=110	=110	=110
4DD/ 4D	.	4f'\ 4a 4ff	.
4EE/ 4E	.	4g'\ 4a 4ee	.
4FF/ 4F	.	4f'/ 4a 4dd	.
((4FF#X/ 4F#X	.	4et/ 4a [4cc	.
.	.	16qqb/LL	.
.	.	16qqcc/JJ	.
!!LB
=111	=111	=111	=111
*	*	*^	*
4GG/)) 4G	.	4a/ 4cc]	4e/	.
2GGG/ 2GG	.	(8.a/L	(4e-X\ 4f#X	>
.	.	16cc/Jk	.	.
.	.	4b/)	4d\) 4fn	.
4GG/ 4G	.	(8.a/L	4d\ 4f	.
.	.	16b/Jk	.	]]
*	*	*v	*v	*
=112||	=112||	=112||	=112||
8CC/ 8C	.	8c/) 8e 8cc	.
8r	.	8r	.
32CC/LLL	.	8.e/L 8.g 8.cc	.
32C/	.	.	.
32CC/	.	.	.
32C/	.	.	.
32CC/	.	.	.
32C/	.	.	.
32CC/	.	16e/Jk 16g 16cc	<
32C/	.	.	.
32CC/	.	4e/ 4g 4cc	.
32C/	.	.	.
32CC/	.	.	.
32C/	.	.	.
32CC/	.	.	.
32C/	.	.	.
32CC/	.	.	.
32C/	.	.	.
32CC/	.	8.c/L 8.cc	.
32C/	.	.	.
32CC/	.	.	.
32C/	.	.	.
32CC/	.	.	.
32C/	.	.	.
32CC/	.	16c/Jk 16cc	.
32C/JJJ	.	.	[[
=113	=113	=113	=113
32CC/L	.	4c/ 4cc	ff
32C/	.	.	.
32CC/	.	.	.
32C/	.	.	.
32CC/	.	.	.
32C/	.	.	.
32CC/	.	.	.
32C/	.	.	.
32CC/	.	8r	.
32C/	.	.	.
32CC/	.	.	.
32C/	.	.	.
32CC/	.	16c/LL 16e	.
32C/	.	.	.
32CC/	.	16c/JJ 16e	.
32C/J	.	.	.
32CC/L	.	4.c/ 4.e	.
32C/	.	.	.
32CC/	.	.	.
32C/	.	.	.
32CC/	.	.	.
32C/	.	.	.
32CC/	.	.	.
32C/	.	.	.
32CC/	.	.	.
32C/	.	.	.
32CC/	.	.	.
32C/	.	.	.
32CC/	.	16c/LL 16e	.
32C/	.	.	.
32CC/	.	16c/JJ 16e	.
32C/J	.	.	.
=114	=114	=114	=114
4CC/ 4C	.	4c/ 4e 4g	.
4AAA/ 4AA	.	4c/ 4e 4a 4cc	.
4AAA/ 4AA	.	4c/ 4e 4a 4cc	.
4AAA/ 4AA	.	4c/ 4e 4a 4cc	.
!!LB
=115	=115	=115	=115
32AAA/L	.	4c/ 4e 4a 4cc	.
32AA/	.	.	.
32AAA/	.	.	.
32AA/	.	.	.
32AAA/	.	.	.
32AA/	.	.	.
32AAA/	.	.	.
32AA/	.	.	.
32AAA/	.	8r	.
32AA/	.	.	.
32AAA/	.	.	.
32AA/	.	.	.
32AAA/	.	16e/LL 16a 16cc	.
32AA/	.	.	.
32AAA/	.	16e/JJ 16a 16cc	.
32AA/J	.	.	.
32AAA/L	.	8e/L 8a 8cc	.
32AA/	.	.	.
32AAA/	.	.	.
32AA/	.	.	.
32AAA/	.	8e/ 8a 8cc	.
32AA/	.	.	.
32AAA/	.	.	.
32AA/	.	.	.
32AAA/	.	8e/ 8a 8cc	.
32AA/	.	.	.
32AAA/	.	.	.
32AA/	.	.	.
32AAA/	.	8e/J 8a 8cc	.
32AA/	.	.	.
32AAA/	.	.	.
32AA/J	.	.	.
=116	=116	=116	=116
4EEE/ 4EE	.	4e/ 4g 4b 4ee	.
4EE/ 4E	.	4e/ 4g 4b 4ee	.
4EE/ 4E	.	4e/ 4g 4b 4ee	.
4EE/ 4E	.	4e/ 4g 4b 4ee	.
=117	=117	=117	=117
32AAA/L	.	4e/ 4a 4cc 4ee	.
32AA/	.	.	.
32AAA/	.	.	.
32AA/	.	.	.
32AAA/	.	.	.
32AA/	.	.	.
32AAA/	.	.	.
32AA/	.	.	.
32AAA/	.	8r	.
32AA/	.	.	.
32AAA/	.	.	.
32AA/	.	.	.
32AAA/	.	16e/LL 16a 16cc 16ee	.
32AA/	.	.	.
32AAA/	.	16e/JJ 16a 16cc 16ee	.
32AA/J	.	.	.
32AAA/L	.	8e/L 8a 8cc 8ee	.
32AA/	.	.	.
32AAA/	.	.	.
32AA/	.	.	.
32AAA/	.	8e/ 8a 8cc 8ee	.
32AA/	.	.	.
32AAA/	.	.	.
32AA/	.	.	.
32AAA/	.	8e/ 8a 8cc 8ee	.
32AA/	.	.	.
32AAA/	.	.	.
32AA/	.	.	.
32AAA/	.	8e/J 8a 8cc 8ee	.
32AA/	.	.	.
32AAA/	.	.	.
32AA/J	.	.	.
=118	=118	=118	=118
32EE/LLL	.	4.g\ 4.b 4.ee 4.gg	.
32E/	.	.	.
32EE/	.	.	.
32E/	.	.	.
32EE/	.	.	.
32E/	.	.	.
32EE/	.	.	.
32E/	.	.	.
32EE/	.	.	.
32E/	.	.	.
32EE/	.	.	.
32E/	.	.	.
32EE/	.	16g\LL 16b 16ee 16gg	.
32E/	.	.	.
32EE/	.	16g\JJ 16b 16ee 16gg	.
32E/JJJ	.	.	.
4EE/ 4E	.	4g\ 4b 4ee 4gg	.
4EE/ 4E	.	4g\ 4b 4ee 4gg	.
!!LB
=119	=119	=119	=119
32GGG/L	.	4.g\ 4.cc 4.ee 4.gg	.
32GG/	.	.	.
32GGG/	.	.	.
32GG/	.	.	.
32GGG/	.	.	.
32GG/	.	.	.
32GGG/	.	.	.
32GG/	.	.	.
32GGG/	.	.	.
32GG/	.	.	.
32GGG/	.	.	.
32GG/	.	.	.
32GGG/	.	16g\LL 16cc 16ee 16gg	.
32GG/	.	.	.
32GGG/	.	16g\JJ 16cc 16ee 16gg	.
32GG/J	.	.	.
32GGG/L	.	8g\L 8cc 8ee 8gg	.
32GG/	.	.	.
32GGG/	.	.	.
32GG/	.	.	.
32GGG/	.	8g\ 8cc 8ee 8gg	.
32GG/	.	.	.
32GGG/	.	.	.
32GG/	.	.	.
32GGG/	.	8g\ 8cc 8ee 8gg	.
32GG/	.	.	.
32GGG/	.	.	.
32GG/	.	.	.
32GGG/	.	8g\J 8cc 8ee 8gg	.
32GG/	.	.	.
32GGG/	.	.	.
32GG/J	.	.	.
=120	=120	=120	=120
32GGG/L	.	4.g\ 4.b 4.ff 4.gg	.
32GG/	.	.	.
32GGG/	.	.	.
32GG/	.	.	.
32GGG/	.	.	.
32GG/	.	.	.
32GGG/	.	.	.
32GG/	.	.	.
32GGG/	.	.	.
32GG/	.	.	.
32GGG/	.	.	.
32GG/	.	.	.
32GGG/	.	16g\LL 16b 16ff 16gg	.
32GG/	.	.	.
32GGG/	.	16g\JJ 16b 16ff 16gg	.
32GG/J	.	.	.
32GGG/L	.	4g\ 4b 4ff 4gg	.
32GG/	.	.	.
32GGG/	.	.	.
32GG/	.	.	.
32GGG/	.	.	.
32GG/	.	.	.
32GGG/	.	.	.
32GG/	.	.	.
32GGG/	.	4g\ 4b 4ff 4gg	.
32GG/	.	.	.
32GGG/	.	.	.
32GG/	.	.	.
32GGG/	.	.	.
32GG/	.	.	.
32GGG/	.	.	.
32GG/J	.	.	.
=121	=121	=121	=121
32CC/LLL	.	4.cc\ 4.ee 4.gg 4.ccc	.
32C/	.	.	.
32CC/	.	.	.
32C/	.	.	.
32CC/	.	.	.
32C/	.	.	.
32CC/	.	.	.
32C/	.	.	.
32CC/	.	.	.
32C/	.	.	.
32CC/	.	.	.
32C/	.	.	.
32CC/	.	16cc\LL 16ee 16gg 16ccc	.
32C/	.	.	.
32CC/	.	16cc\JJ 16ee 16gg 16ccc	.
32C/JJJ	.	.	.
4CC/ 4C	.	4cc\ 4ee 4gg 4ccc	.
8.CC/L 8.GG 8.C	.	8.cc\L 8.ee 8.gg 8.ccc	.
16CC/Jk 16GG 16C	.	16cc\Jk 16ee 16gg 16ccc	.
=122	=122	=122	=122
4CC/ 4GG 4C	.	4cc\ 4ee 4gg 4ccc	.
4CC/ 4GG 4C	.	4cc\ 4ee 4gg 4ccc	.
4CC/ 4GG 4C	.	4cc\ 4ee 4gg 4ccc	.
4CC/ 4GG 4C	.	4cc\ 4ee 4gg 4ccc	.
=123	=123	=123	=123
32CC/L 32GG	.	1cc; 1ee 1gg 1ccc	.
32C/	.	.	.
32CC/ 32GG	.	.	.
32C/	.	.	.
32CC/ 32GG	.	.	.
32C/	.	.	.
32CC/ 32GG	.	.	.
32C/	.	.	.
32CC/ 32GG	.	.	.
32C/	.	.	.
32CC/ 32GG	.	.	.
32C/	.	.	.
32CC/ 32GG	.	.	.
32C/	.	.	.
32CC/ 32GG	.	.	.
32C/J	.	.	.
32CC;</L 32GG	.	.	.
32C/	.	.	.
32CC/ 32GG	.	.	.
32C/	.	.	.
32CC/ 32GG	.	.	.
32C/	.	.	.
32CC/ 32GG	.	.	.
32C/	.	.	.
32CC/ 32GG	.	.	.
32C/	.	.	.
32CC/ 32GG	.	.	.
32C/	.	.	.
32CC/ 32GG	.	.	.
32C/	.	.	.
32CC/ 32GG	.	.	.
!	!	!LO:TX:b:i:t=Fine.	!
32C;/J	.	.	.
==	==	==	==
*-	*-	*-	*-
!!!RDF**kern: < = below
!!!RDF**kern: > = above
!!!system-decoration: {(s1,s2)}
!!!ENC: Marta Opryszak
!!!END: 2022-03-25
!!!ENC: Urszula Świątek
!!!END: 2022-03-27
